svg/file/file_new_fill.svg

<?xml version="1.0" encoding="UTF-8"?>
<svg width="24px" height="24px" viewBox="0 0 24 24" version="1.1" xmlns="http://www.w3.org/2000/svg" xmlns:xlink="http://www.w3.org/1999/xlink">
    <title>file_new_fill</title>
    <g id="页面-1" stroke="none" stroke-width="1" fill="none" fill-rule="evenodd">
        <g id="File" transform="translate(-336.000000, -144.000000)">
            <g id="file_new_fill" transform="translate(336.000000, 144.000000)">
                 <path d="M24,0 L24,24 L0,24 L0,0 L24,0 Z M12.5934901,23.257841 L12.5819402,23.2595131 L12.5108777,23.2950439 L12.4918791,23.2987469 L12.4918791,23.2987469 L12.4767152,23.2950439 L12.4056548,23.2595131 C12.3958229,23.2563662 12.3870493,23.2590235 12.3821421,23.2649074 L12.3780323,23.275831 L12.360941,23.7031097 L12.3658947,23.7234994 L12.3769048,23.7357139 L12.4804777,23.8096931 L12.4953491,23.8136134 L12.4953491,23.8136134 L12.5071152,23.8096931 L12.6106902,23.7357139 L12.6232938,23.7196733 L12.6232938,23.7196733 L12.6266527,23.7031097 L12.609561,23.275831 C12.6075724,23.2657013 12.6010112,23.2592993 12.5934901,23.257841 L12.5934901,23.257841 Z M12.8583906,23.1452862 L12.8445485,23.1473072 L12.6598443,23.2396597 L12.6498822,23.2499052 L12.6498822,23.2499052 L12.6471943,23.2611114 L12.6650943,23.6906389 L12.6699349,23.7034178 L12.6699349,23.7034178 L12.678386,23.7104931 L12.8793402,23.8032389 C12.8914285,23.8068999 12.9022333,23.8029875 12.9078286,23.7952264 L12.9118235,23.7811639 L12.8776777,23.1665331 C12.8752882,23.1545897 12.8674102,23.1470016 12.8583906,23.1452862 L12.8583906,23.1452862 Z M12.1430473,23.1473072 C12.1332178,23.1423925 12.1221763,23.1452606 12.1156365,23.1525954 L12.1099173,23.1665331 L12.0757714,23.7811639 C12.0751323,23.7926639 12.0828099,23.8018602 12.0926481,23.8045676 L12.108256,23.8032389 L12.3092106,23.7104931 L12.3186497,23.7024347 L12.3186497,23.7024347 L12.3225043,23.6906389 L12.340401,23.2611114 L12.337245,23.2485176 L12.337245,23.2485176 L12.3277531,23.2396597 L12.1430473,23.1473072 Z" id="MingCute" fill-rule="nonzero"></path>
                <path d="M12,2 L12,8.5 C12,9.27969882 12.5949121,9.920449 13.3555442,9.99313345 L13.5,10 L20,10 L20,20 C20,21.0543909 19.18415,21.9181678 18.1492661,21.9945144 L18,22 L6,22 C4.94563773,22 4.08183483,21.18415 4.00548573,20.1492661 L4,20 L4,4 C4,2.94563773 4.81587733,2.08183483 5.85073759,2.00548573 L6,2 L12,2 Z M12,11.5 C11.48715,11.5 11.0644908,11.886027 11.0067275,12.3833761 L11,12.5 L11,14 L9.5,14 C8.94772,14 8.5,14.4477 8.5,15 C8.5,15.51285 8.88604429,15.9355092 9.38337975,15.9932725 L9.5,16 L11,16 L11,17.5 C11,18.0523 11.4477,18.5 12,18.5 C12.51285,18.5 12.9355092,18.113973 12.9932725,17.6166239 L13,17.5 L13,16 L14.5,16 C15.0523,16 15.5,15.5523 15.5,15 C15.5,14.48715 15.113973,14.0644908 14.6166239,14.0067275 L14.5,14 L13,14 L13,12.5 C13,11.9477 12.5523,11.5 12,11.5 Z M14,2.04336 C14.3222,2.11158 14.624049,2.25868408 14.8774606,2.47305359 L15,2.58579 L19.4142,7 C19.6506857,7.23646857 19.8218571,7.52605551 19.9160012,7.8407123 L19.9566,8 L14,8 L14,2.04336 Z" id="形状" fill="#09244B"></path>
            </g>
        </g>
    </g>
</svg>

<svg xmlns="http://www.w3.org/2000/svg" width="24" height="24"><g fill="none" fill-rule="evenodd"><path d="M24 0v24H0V0h24ZM12.593 23.258l-.011.002-.071.035-.02.004-.014-.004-.071-.035c-.01-.004-.019-.001-.024.005l-.004.01-.017.428.005.02.01.013.104.074.015.004.012-.004.104-.074.012-.016.004-.017-.017-.427c-.002-.01-.009-.017-.017-.018Zm.265-.113-.013.002-.185.093-.01.01-.003.011.018.43.005.012.008.007.201.093c.012.004.023 0 .029-.008l.004-.014-.034-.614c-.003-.012-.01-.02-.02-.022Zm-.715.002a.023.023 0 0 0-.027.006l-.006.014-.034.614c0 .012.007.02.017.024l.015-.002.201-.093.01-.008.004-.011.017-.43-.003-.012-.01-.01-.184-.092Z"/><path fill="#09244B" d="M12 2v6.5a1.5 1.5 0 0 0 1.356 1.493L13.5 10H20v10a2 2 0 0 1-1.85 1.995L18 22H6a2 2 0 0 1-1.995-1.85L4 20V4a2 2 0 0 1 1.85-1.995L6 2h6Zm0 9.5a1 1 0 0 0-.993.883L11 12.5V14H9.5a1 1 0 0 0-.117 1.993L9.5 16H11v1.5a1 1 0 0 0 1.993.117L13 17.5V16h1.5a1 1 0 0 0 .117-1.993L14.5 14H13v-1.5a1 1 0 0 0-1-1Zm2-9.457a2 2 0 0 1 .877.43l.123.113L19.414 7a2 2 0 0 1 .502.84l.04.16H14V2.043Z"/></g></svg>
